X: 1153
T:The Tap Room
R:Reel
H:From Paddy Canny & P. J. Hayes
M:4/4
L:1/8
K:D
E2 BE cdBE | (B2A)F DEFD | E2BE cdBE | (3BcB Ac BAFD |
E2 dE cEBE | (3BcB AF DEFA | (af)ge fdBc | dBAc BE{F}ED :|
Bdef gfed | (3BcB AF DEFA | Bdef gfed | BdAd BAFA |
Bdef gfed | (3BcB AF DEFA | afge fdBc | dBAc BE{F}ED :|
